X:430
T: Scartaglen (b)
T: John Clifford's
T: Danny Green's
T: Darby's Cross
S: "Johnny O'Leary of Sliabh Luachra" (#110)
Z: B.Black
L: 1/8
M: 2/4
Q: 280
R: polka
K: D
AF AF/A/|BG B2|c/B/A/B/ ce|f/e/d B/c/d/B/|
AF AF/A/|BG B2|c/B/A/B/ ce|1 f/e/d d>B :|2\
f/e/d d2||
A2 g>g|fe e2|ef ga|ba a/g/a/f/|
ef g>g|fe ee/d/|ef gc|ed de/d/|
A2 g>g|fe ee/d/|ef ga|ba a/g/a|
ef gf/g/|fe ee/d/|ef gc|ed d2 ||
